img/skills/herramientas/photoshop.svg

<svg xmlns="http://www.w3.org/2000/svg" x="0px" y="0px" width="100" height="100" viewBox="0 0 30 30">
    <path d="M 6 4 C 4.895 4 4 4.895 4 6 L 4 24 C 4 25.105 4.895 26 6 26 L 24 26 C 25.105 26 26 25.105 26 24 L 26 6 C 26 4.895 25.105 4 24 4 L 6 4 z M 8 9.9921875 L 11.978516 9.9921875 C 13.947516 9.9921875 15.294922 11.339125 15.294922 13.328125 C 15.294922 15.283125 13.898344 16.623047 11.902344 16.623047 L 9.7636719 16.623047 L 9.7636719 19.857422 L 8 19.857422 L 8 9.9921875 z M 9.7636719 11.46875 L 9.7636719 15.160156 L 11.507812 15.160156 C 12.765813 15.160156 13.503906 14.504125 13.503906 13.328125 C 13.503906 12.119125 12.784672 11.46875 11.513672 11.46875 L 9.7636719 11.46875 z M 19.207031 12.226562 C 20.984031 12.226562 22.099656 13.013047 22.222656 14.373047 L 20.630859 14.373047 C 20.507859 13.847047 20.007844 13.511719 19.214844 13.511719 C 18.442844 13.511719 17.861328 13.881875 17.861328 14.421875 C 17.861328 14.845875 18.21675 15.105391 18.96875 15.275391 L 20.287109 15.576172 C 21.716109 15.897172 22.378906 16.513281 22.378906 17.613281 C 22.378906 19.050281 21.059359 20.007813 19.193359 20.007812 C 17.327359 20.007812 16.151484 19.199844 16.021484 17.839844 L 17.697266 17.839844 C 17.861266 18.393844 18.386375 18.722656 19.234375 18.722656 C 20.088375 18.722656 20.683594 18.346969 20.683594 17.792969 C 20.683594 17.368969 20.363344 17.101359 19.652344 16.943359 L 18.326172 16.636719 C 16.890172 16.308719 16.214844 15.645578 16.214844 14.517578 C 16.214844 13.163578 17.443031 12.226562 19.207031 12.226562 z"></path>
</svg>

<svg xmlns="http://www.w3.org/2000/svg" x="0px" y="0px" width="100" height="100" viewBox="0,0,256,256">
<g fill="#08253c" fill-rule="nonzero" stroke="none" stroke-width="1" stroke-linecap="butt" stroke-linejoin="miter" stroke-miterlimit="10" stroke-dasharray="" stroke-dashoffset="0" font-family="none" font-weight="none" font-size="none" text-anchor="none" style="mix-blend-mode: normal"><g transform="scale(8.53333,8.53333)"><path d="M6,4c-1.105,0 -2,0.895 -2,2v18c0,1.105 0.895,2 2,2h18c1.105,0 2,-0.895 2,-2v-18c0,-1.105 -0.895,-2 -2,-2zM8,9.99219h3.97852c1.969,0 3.31641,1.34694 3.31641,3.33594c0,1.955 -1.39658,3.29492 -3.39258,3.29492h-2.13867v3.23438h-1.76367zM9.76367,11.46875v3.69141h1.74414c1.258,0 1.99609,-0.65603 1.99609,-1.83203c0,-1.209 -0.71923,-1.85937 -1.99023,-1.85937zM19.20703,12.22656c1.777,0 2.89262,0.78649 3.01563,2.14649h-1.5918c-0.123,-0.526 -0.62302,-0.86133 -1.41602,-0.86133c-0.772,0 -1.35352,0.37016 -1.35352,0.91016c0,0.424 0.35542,0.68352 1.10742,0.85352l1.31836,0.30078c1.429,0.321 2.0918,0.93711 2.0918,2.03711c0,1.437 -1.31955,2.39453 -3.18555,2.39453c-1.866,0 -3.04188,-0.80797 -3.17187,-2.16797h1.67578c0.164,0.554 0.68911,0.88281 1.53711,0.88281c0.854,0 1.44922,-0.37569 1.44922,-0.92969c0,-0.424 -0.32025,-0.69161 -1.03125,-0.84961l-1.32617,-0.30664c-1.436,-0.328 -2.11133,-0.99114 -2.11133,-2.11914c0,-1.354 1.22819,-2.29102 2.99219,-2.29102z"></path></g></g>
</svg>
